Simply white circles/scalable/places/folder-publicshare.svg

<?xml version="1.0" encoding="UTF-8" standalone="no"?>
<!-- Created with Inkscape (http://www.inkscape.org/) -->

<svg
   xmlns:dc="http://purl.org/dc/elements/1.1/"
   xmlns:cc="http://creativecommons.org/ns#"
   xmlns:rdf="http://www.w3.org/1999/02/22-rdf-syntax-ns#"
   xmlns:svg="http://www.w3.org/2000/svg"
   xmlns="http://www.w3.org/2000/svg"
   xmlns:sodipodi="http://sodipodi.sourceforge.net/DTD/sodipodi-0.dtd"
   xmlns:inkscape="http://www.inkscape.org/namespaces/inkscape"
   width="48"
   height="48"
   viewBox="0 0 12.7 12.7"
   version="1.1"
   id="svg829"
   inkscape:version="0.92.3 (2405546, 2018-03-11)"
   sodipodi:docname="folder-publicshare.svg">
  <defs
     id="defs823" />
  <sodipodi:namedview
     id="base"
     pagecolor="#ffffff"
     bordercolor="#666666"
     borderopacity="1.0"
     inkscape:pageopacity="0.0"
     inkscape:pageshadow="2"
     inkscape:zoom="2.5625"
     inkscape:cx="0.66261902"
     inkscape:cy="20.945004"
     inkscape:document-units="mm"
     inkscape:current-layer="layer1"
     showgrid="false"
     showguides="true"
     inkscape:guide-bbox="true"
     inkscape:window-width="1366"
     inkscape:window-height="719"
     inkscape:window-x="0"
     inkscape:window-y="25"
     inkscape:window-maximized="1"
     scale-x="1.9"
     units="px" />
  <metadata
     id="metadata826">
    <rdf:RDF>
      <cc:Work
         rdf:about="">
        <dc:format>image/svg+xml</dc:format>
        <dc:type
           rdf:resource="http://purl.org/dc/dcmitype/StillImage" />
        <dc:title></dc:title>
      </cc:Work>
    </rdf:RDF>
  </metadata>
  <g
     inkscape:label="Capa 1"
     inkscape:groupmode="layer"
     id="layer1"
     transform="translate(0,-284.3)">
    <path
       style="fill:#e6e6e6;fill-opacity:1;stroke-width:0.52516764"
       d="M 23.978516 0.27539062 A 23.770509 23.770509 0 0 0 0.20703125 24.046875 A 23.770509 23.770509 0 0 0 23.978516 47.816406 A 23.770509 23.770509 0 0 0 47.748047 24.046875 A 23.770509 23.770509 0 0 0 23.978516 0.27539062 z M 23.910156 3.8144531 A 20.436071 20.436071 0 0 1 44.345703 24.25 A 20.436071 20.436071 0 0 1 23.910156 44.685547 A 20.436071 20.436071 0 0 1 3.4726562 24.25 A 20.436071 20.436071 0 0 1 23.910156 3.8144531 z M 31.589844 9.0390625 A 5.7421946 5.7421946 0 0 0 25.847656 14.78125 A 5.7421946 5.7421946 0 0 0 25.898438 15.488281 L 16.429688 20.220703 A 5.7421946 5.7421946 0 0 0 12.449219 18.609375 A 5.7421946 5.7421946 0 0 0 6.7070312 24.351562 A 5.7421946 5.7421946 0 0 0 12.449219 30.09375 A 5.7421946 5.7421946 0 0 0 16.433594 28.484375 L 25.896484 33.216797 A 5.7421946 5.7421946 0 0 0 25.847656 33.921875 A 5.7421946 5.7421946 0 0 0 31.589844 39.664062 A 5.7421946 5.7421946 0 0 0 37.332031 33.921875 A 5.7421946 5.7421946 0 0 0 31.589844 28.179688 A 5.7421946 5.7421946 0 0 0 27.605469 29.789062 L 18.144531 25.056641 A 5.7421946 5.7421946 0 0 0 18.191406 24.351562 A 5.7421946 5.7421946 0 0 0 18.142578 23.646484 L 27.611328 18.912109 A 5.7421946 5.7421946 0 0 0 31.589844 20.523438 A 5.7421946 5.7421946 0 0 0 37.332031 14.78125 A 5.7421946 5.7421946 0 0 0 31.589844 9.0390625 z "
       transform="matrix(0.26458333,0,0,0.26458333,0,284.3)"
       id="path820" />
  </g>
</svg>

<?xml version="1.0" encoding="UTF-8" standalone="no"?>
<svg
   xmlns:dc="http://purl.org/dc/elements/1.1/"
   xmlns:cc="http://creativecommons.org/ns#"
   xmlns:rdf="http://www.w3.org/1999/02/22-rdf-syntax-ns#"
   xmlns:svg="http://www.w3.org/2000/svg"
   xmlns="http://www.w3.org/2000/svg"
   xmlns:sodipodi="http://sodipodi.sourceforge.net/DTD/sodipodi-0.dtd"
   xmlns:inkscape="http://www.inkscape.org/namespaces/inkscape"
   width="48"
   height="48"
   version="1.1"
   viewBox="0 0 12.7 12.7"
   id="svg8"
   sodipodi:docname="folder-publicshare.svg"
   inkscape:version="0.92.3 (2405546, 2018-03-11)">
  <defs
     id="defs12" />
  <sodipodi:namedview
     pagecolor="#ffffff"
     bordercolor="#666666"
     borderopacity="1"
     objecttolerance="10"
     gridtolerance="10"
     guidetolerance="10"
     inkscape:pageopacity="0"
     inkscape:pageshadow="2"
     inkscape:window-width="883"
     inkscape:window-height="480"
     id="namedview10"
     showgrid="false"
     inkscape:zoom="4.9166667"
     inkscape:cx="24"
     inkscape:cy="24"
     inkscape:window-x="0"
     inkscape:window-y="25"
     inkscape:window-maximized="0"
     inkscape:current-layer="svg8" />
  <metadata
     id="metadata2">
    <rdf:RDF>
      <cc:Work
         rdf:about="">
        <dc:format>image/svg+xml</dc:format>
        <dc:type
           rdf:resource="http://purl.org/dc/dcmitype/StillImage" />
        <dc:title></dc:title>
      </cc:Work>
    </rdf:RDF>
  </metadata>
  <g
     transform="translate(0,-284.3)"
     id="g6"
     style="fill:#e6e6e6">
    <path
       transform="matrix(.26458 0 0 .26458 0 284.3)"
       d="m23.979 0.27539a23.771 23.771 0 0 0 -23.771 23.771 23.771 23.771 0 0 0 23.771 23.77 23.771 23.771 0 0 0 23.77 -23.77 23.771 23.771 0 0 0 -23.77 -23.771zm-0.06836 3.5391a20.436 20.436 0 0 1 20.436 20.436 20.436 20.436 0 0 1 -20.436 20.436 20.436 20.436 0 0 1 -20.437 -20.436 20.436 20.436 0 0 1 20.437 -20.436zm7.6797 5.2246a5.7422 5.7422 0 0 0 -5.7422 5.7422 5.7422 5.7422 0 0 0 0.050782 0.70703l-9.4688 4.7324a5.7422 5.7422 0 0 0 -3.9805 -1.6113 5.7422 5.7422 0 0 0 -5.7422 5.7422 5.7422 5.7422 0 0 0 5.7422 5.7422 5.7422 5.7422 0 0 0 3.9844 -1.6094l9.4629 4.7324a5.7422 5.7422 0 0 0 -0.048828 0.70508 5.7422 5.7422 0 0 0 5.7422 5.7422 5.7422 5.7422 0 0 0 5.7422 -5.7422 5.7422 5.7422 0 0 0 -5.7422 -5.7422 5.7422 5.7422 0 0 0 -3.9844 1.6094l-9.4609-4.7324a5.7422 5.7422 0 0 0 0.046875 -0.70508 5.7422 5.7422 0 0 0 -0.048828 -0.70508l9.4688-4.7344a5.7422 5.7422 0 0 0 3.9785 1.6113 5.7422 5.7422 0 0 0 5.7422 -5.7422 5.7422 5.7422 0 0 0 -5.7422 -5.7422z"
       fill="#1a1a1a"
       stroke-width=".52517"
       id="path4"
       style="fill:#e6e6e6" />
  </g>
</svg>
